X: 2101
T: Mrs DUNDAS OF ARNISTON
C: Wm Gow
Q: "Reel."
R: Reel.
%R: reel
B: James Kerr "Merry Melodies" v.2 p.13 #101
Z: 2016 John Chambers <jc:trillian.mit.edu>
M: C
L: 1/8
K: C
uG |\
c2(ce) dBGB | (AF) {FG}F2 GECE |\
F2(FA) GECE | FDCB, C3 :|\
uf |\
egec (Bd)g2 | (Ac)f2 (GB)e2 |
FAdF EGce | fdcB c3f |\
egec BdgB | AcfA GBeG |\
FAdF EGcE | FDCB, C3 |]
